X:1
T:Title
%%score ( 1 2 ) { ( 3 5 6 ) | 4 }
L:1/8
Q:1/4=107
M:4/4
K:Eb
V:1 treble nm="Grand Piano, Staff"
V:2 treble 
V:3 bass nm="Choir Pad, Bangor, CM"
V:5 bass 
V:6 bass 
V:4 bass 
V:1
 [DG]2 [CE]2 [=B,D]2 C2 | [DG]2 [Ec]2 BA [EG]2 | [FG]2 [EG]2 [GB][E=A] [DG]2 | [D_G]2 [D=G]6 | %4
w: By~William~Tans�ur,~1734 * * *||||
 G2 [Gc]2 [F=B]2 [Ec]2 | ed [Ec]2 BA [EG]2 | G-[DG] [Ec]2 GF [CE]2 | [=B,D]2 C6- | C2 z2 z4 |] %9
w: |||||
V:2
 x8 | z4 D2 z2 | x8 | x8 | x8 | E2 z2 D2 z2 | .C2 z2 C2 z2 | x8 | x8 |] %9
V:3
 G,2 G,2 G,2 E,G, | B,2 C2 F,B, B,2 | =B,2[K:treble] C2 DC _B,2 | =A,2[K:bass] =B,6 | %4
 =B,2 C2 G,2 G,2 | B,2 A,2 F,B, B,2 | z4 z2 G,2- | G, z z2 z4 | z8 |] %9
V:4
 =B,,2 C,2 G,,2 C,2 | B,,2 A,,2 B,,2 E,2 | D,2 C,2 B,,C, D,2 | D,2 G,,6 | G,F, E,2 D,2 C,2 | %5
 G,,2 A,,2 B,,2 E,2 | E,D, C,2 E,F, z2 | z2 C,6- | C,2 z2 z4 |] %9
V:5
 x8 | x8 | x2[K:treble] x6 | x2[K:bass] x6 | x8 | x8 | G,2 G,2 G,A, z2 | z F, E,6- | E,2 z2 z4 |] %9
V:6
 x8 | x8 | x2[K:treble] x6 | x2[K:bass] x6 | x8 | x8 | x8 | G,,2 z2 z4 | x8 |] %9

